SVG_Azure_All/API Playground.svg

<?xml version="1.0" encoding="UTF-8" standalone="no"?>
<!-- Generated by Microsoft Visio, SVG Export API Playground.svg Page-1 -->

<svg
   xmlns:dc="http://purl.org/dc/elements/1.1/"
   xmlns:cc="http://creativecommons.org/ns#"
   xmlns:rdf="http://www.w3.org/1999/02/22-rdf-syntax-ns#"
   xmlns:svg="http://www.w3.org/2000/svg"
   xmlns="http://www.w3.org/2000/svg"
   xmlns:sodipodi="http://sodipodi.sourceforge.net/DTD/sodipodi-0.dtd"
   xmlns:inkscape="http://www.inkscape.org/namespaces/inkscape"
   width="0.7873624in"
   height="0.74817061in"
   viewBox="0 0 56.690001 53.868018"
   xml:space="preserve"
   class="st4"
   version="1.1"
   id="svg46"
   sodipodi:docname="API Playground.svg"
   style="font-size:12px;overflow:visible;color-interpolation-filters:sRGB;fill:none;fill-rule:evenodd;stroke-linecap:square;stroke-miterlimit:3"
   inkscape:version="0.92.5 (2060ec1f9f, 2020-04-08)"><metadata
   id="metadata50"><rdf:RDF><cc:Work
       rdf:about=""><dc:format>image/svg+xml</dc:format><dc:type
         rdf:resource="http://purl.org/dc/dcmitype/StillImage" /></cc:Work></rdf:RDF></metadata><sodipodi:namedview
   pagecolor="#ffffff"
   bordercolor="#666666"
   borderopacity="1"
   objecttolerance="10"
   gridtolerance="10"
   guidetolerance="10"
   inkscape:pageopacity="0"
   inkscape:pageshadow="2"
   inkscape:window-width="640"
   inkscape:window-height="480"
   id="namedview48"
   showgrid="false"
   inkscape:zoom="1.452229"
   inkscape:cx="37.795396"
   inkscape:cy="35.898457"
   inkscape:window-x="0"
   inkscape:window-y="0"
   inkscape:window-maximized="0"
   inkscape:current-layer="svg46" />
	<style
   type="text/css"
   id="style2">
	<![CDATA[
		.st1 {fill:url(#grad0-6);stroke:none;stroke-linecap:butt;stroke-width:34}
		.st2 {fill:#50e6ff;stroke:none;stroke-linecap:butt;stroke-width:34}
		.st3 {fill:url(#grad0-12);stroke:none;stroke-linecap:butt;stroke-width:34}
		.st4 {fill:none;fill-rule:evenodd;font-size:12px;overflow:visible;stroke-linecap:square;stroke-miterlimit:3}
	]]>
	</style>

	<defs
   id="Patterns_And_Gradients">
		<linearGradient
   id="grad0-6"
   x1="0"
   y1="98.844104"
   x2="47.283255"
   y2="98.844104"
   gradientTransform="scale(1.1989445,0.83406695)"
   gradientUnits="userSpaceOnUse">
			<stop
   offset="0"
   stop-color="#0078d4"
   stop-opacity="1"
   id="stop4" />
			<stop
   offset="0.155"
   stop-color="#1380da"
   stop-opacity="1"
   id="stop6" />
			<stop
   offset="0.53"
   stop-color="#3c91e5"
   stop-opacity="1"
   id="stop8" />
			<stop
   offset="0.82"
   stop-color="#559cec"
   stop-opacity="1"
   id="stop10" />
			<stop
   offset="1"
   stop-color="#5ea0ef"
   stop-opacity="1"
   id="stop12" />
		</linearGradient>
		<linearGradient
   id="grad0-12"
   x1="-0.6558457"
   y1="224.39766"
   x2="16.678745"
   y2="224.39766"
   gradientTransform="scale(1.9833627,0.50419421)"
   gradientUnits="userSpaceOnUse">
			<stop
   offset="0"
   stop-color="#a67af4"
   stop-opacity="1"
   id="stop15" />
			<stop
   offset="1"
   stop-color="#773adc"
   stop-opacity="1"
   id="stop17" />
		</linearGradient>
	</defs>
	<g
   id="g44"
   transform="translate(-34,-33.996304)">
		<title
   id="title21">Page-1</title>
		<g
   id="group10217-1"
   transform="translate(34,-34.0157)">
			<title
   id="title23">API Playground</title>
			<g
   id="group10218-2">
				<title
   id="title25">Sheet.10218</title>
				<g
   id="shape10219-3"
   transform="translate(0,-14.4308)">
					<title
   id="title27">Sheet.10219</title>
					<path
   d="M 56.69,109.56 A 12.8882,12.6529 0 0 1 43.9,121.75 c -0.02,0 -0.29,0.02 -0.77,0.03 h -2.66 c -2.76,0.02 -6.82,0.04 -10.84,0.06 h -2.66 l -10.75,0.04 H 14.7 c -0.16,0 -0.32,-0.01 -0.47,-0.03 -0.22,-0.01 -0.44,-0.04 -0.66,-0.06 A 15.4331,15.1513 0 0 1 0,107.36 15.2,14.9225 0 0 1 13.37,92.99 16.4598,16.1593 0 0 1 29.11,82.45 16.063,15.7697 0 0 1 45.65,97.53 12.7339,12.5014 0 0 1 56.69,109.56 Z"
   class="st1"
   id="path29"
   inkscape:connector-curvature="0"
   style="fill:url(#grad0-6);stroke:none;stroke-width:34;stroke-linecap:butt" />
				</g>
				<g
   id="shape10220-7"
   transform="translate(14.2677,-3.5621)">
					<title
   id="title32">Sheet.10220</title>
					<path
   d="m 28.16,102.68 v 19.2 h -1.34 a 1.33228,1.30796 0 0 1 -1.33,-1.31 v -17.88 a 1.33543,1.31105 0 1 1 2.67,0 z M 2.67,120.56 v -17.87 a 1.33543,1.31105 -180 1 0 -2.67,0 v 19.17 h 1.34 a 1.32913,1.30487 -180 0 0 1.33,-1.24 0.258268,0.253553 -180 0 0 0,-0.068 z M 14.08,90.5 a 1.33543,1.31105 -180 0 0 -1.33,1.32 v 28.75 a 1.33543,1.31105 -180 0 0 1.33,1.31 h 1.34 V 91.81 A 1.33543,1.31105 -180 0 0 14.08,90.5 Z"
   class="st2"
   id="path34"
   inkscape:connector-curvature="0"
   style="fill:#50e6ff;stroke:none;stroke-width:34;stroke-linecap:butt" />
				</g>
				<g
   id="shape10221-9"
   transform="translate(12.4562)">
					<title
   id="title37">Sheet.10221</title>
					<path
   d="m 7.6,117.51 a 4.45039,4.36914 0 1 1 -4.45,-4.37 4.45039,4.36914 0 0 1 4.45,4.37 z m 25.48,0 a 4.45039,4.36914 -180 1 0 -4.45,4.37 4.45039,4.36914 -180 0 0 4.45,-4.37 z m -12.74,0 a 4.45039,4.36914 -180 1 0 -4.45,4.37 4.45039,4.36914 -180 0 0 4.45,-4.37 z"
   class="st3"
   id="path39"
   inkscape:connector-curvature="0"
   style="fill:url(#grad0-12);stroke:none;stroke-width:34;stroke-linecap:butt" />
				</g>
			</g>
		</g>
	</g>
</svg>

<?xml version="1.0" encoding="UTF-8" standalone="no"?>
<!DOCTYPE svg PUBLIC "-//W3C//DTD SVG 1.1//EN" "http://www.w3.org/Graphics/SVG/1.1/DTD/svg11.dtd">
<!-- Generated by Microsoft Visio, SVG Export API Playground.svg Page-1 -->
<svg xmlns="http://www.w3.org/2000/svg" xmlns:xlink="http://www.w3.org/1999/xlink" xmlns:ev="http://www.w3.org/2001/xml-events"
		width="1.73185in" height="1.6928in" viewBox="0 0 124.693 121.881" xml:space="preserve" color-interpolation-filters="sRGB"
		class="st4">
	<style type="text/css">
	<![CDATA[
		.st1 {fill:url(#grad0-6);stroke:none;stroke-linecap:butt;stroke-width:34}
		.st2 {fill:#50e6ff;stroke:none;stroke-linecap:butt;stroke-width:34}
		.st3 {fill:url(#grad0-12);stroke:none;stroke-linecap:butt;stroke-width:34}
		.st4 {fill:none;fill-rule:evenodd;font-size:12px;overflow:visible;stroke-linecap:square;stroke-miterlimit:3}
	]]>
	</style>

	<defs id="Patterns_And_Gradients">
		<linearGradient id="grad0-6" x1="0" y1="0" x2="1" y2="0" gradientTransform="rotate(-68.459652906306 0.5 0.5)">
			<stop offset="0" stop-color="#0078d4" stop-opacity="1"/>
			<stop offset="0.155" stop-color="#1380da" stop-opacity="1"/>
			<stop offset="0.53" stop-color="#3c91e5" stop-opacity="1"/>
			<stop offset="0.82" stop-color="#559cec" stop-opacity="1"/>
			<stop offset="1" stop-color="#5ea0ef" stop-opacity="1"/>
		</linearGradient>
		<linearGradient id="grad0-12" x1="0" y1="0" x2="1" y2="0" gradientTransform="rotate(90 0.5 0.5)">
			<stop offset="0" stop-color="#a67af4" stop-opacity="1"/>
			<stop offset="1" stop-color="#773adc" stop-opacity="1"/>
		</linearGradient>
	</defs>
	<g>
		<title>Page-1</title>
		<g id="group9986-1" transform="translate(34,-34.0157)">
			<title>API Playground</title>
			<g id="group9987-2">
				<title>Sheet.9987</title>
				<g id="shape9988-3" transform="translate(0,-14.4308)">
					<title>Sheet.9988</title>
					<path d="M56.69 109.56 A12.8882 12.6529 0 0 1 43.9 121.75 C43.88 121.75 43.61 121.77 43.13 121.78 L40.47 121.78
								 C37.71 121.8 33.65 121.82 29.63 121.84 L26.97 121.84 L16.22 121.88 L14.7 121.88 C14.54 121.88 14.38
								 121.87 14.23 121.85 C14.01 121.84 13.79 121.81 13.57 121.79 A15.4331 15.1513 0 0 1 0 107.36 A15.2
								 14.9225 0 0 1 13.37 92.99 A16.4598 16.1593 0 0 1 29.11 82.45 A16.063 15.7697 0 0 1 45.65 97.53 A12.7339
								 12.5014 0 0 1 56.69 109.56 Z" class="st1"/>
				</g>
				<g id="shape9989-7" transform="translate(14.2677,-3.5621)">
					<title>Sheet.9989</title>
					<path d="M28.16 102.68 L28.16 121.88 L26.82 121.88 A1.33228 1.30796 0 0 1 25.49 120.57 L25.49 102.69 A1.33543
								 1.31105 0 1 1 28.16 102.69 L28.16 102.68 ZM2.67 120.56 L2.67 102.69 A1.33543 1.31105 -180 1 0 0
								 102.69 L0 121.86 L1.34 121.86 A1.32913 1.30487 -180 0 0 2.67 120.62 a0.258268 0.253553 -180 0 0
								 -8.88178E-16 -0.0680263 L2.67 120.56 ZM14.08 90.5 A1.33543 1.31105 -180 0 0 12.75 91.82 L12.75 120.57
								 A1.33543 1.31105 -180 0 0 14.08 121.88 L15.42 121.88 L15.42 91.81 A1.33543 1.31105 -180 0 0 14.08
								 90.5 Z" class="st2"/>
				</g>
				<g id="shape9990-9" transform="translate(12.4562,1.42109E-14)">
					<title>Sheet.9990</title>
					<path d="M7.6 117.51 A4.45039 4.36914 0 1 1 3.15 113.14 A4.45039 4.36914 0 0 1 7.6 117.51 ZM33.08 117.51 A4.45039
								 4.36914 -180 1 0 28.63 121.88 A4.45039 4.36914 -180 0 0 33.08 117.51 ZM20.34 117.51 A4.45039 4.36914
								 -180 1 0 15.89 121.88 A4.45039 4.36914 -180 0 0 20.34 117.51 Z" class="st3"/>
				</g>
			</g>
		</g>
	</g>
</svg>
